icons/svg/16x16/history/outline.svg

<svg width="16" height="16" fill="none" xmlns="http://www.w3.org/2000/svg">
  <path fill-rule="evenodd" clip-rule="evenodd" d="M8 1a7 7 0 00-5.416 2.584L1 2v5h5L4.005 5.005A5.003 5.003 0 018 3c2.757 0 5 2.243 5 5s-2.243 5-5 5a4.983 4.983 0 01-4.931-4.166l-1.972.332A6.975 6.975 0 008 15c3.859 0 7-3.141 7-7s-3.141-7-7-7zm1 4v3.382l1.447.723a1.001 1.001 0 01-.894 1.79l-2-1A1.001 1.001 0 017 9V5a1 1 0 112 0z" fill="#000"/>
</svg>

<svg xmlns="http://www.w3.org/2000/svg" width="16" height="16" viewBox="0 0 16 16">
  <path fill-rule="evenodd" d="M8,1 C5.891,1 3.908,1.962 2.584,3.584 L1,2 L1,7 L6,7 L4.005,5.005 C4.948,3.75 6.425,3 8,3 C10.757,3 13,5.243 13,8 C13,10.757 10.757,13 8,13 C5.548,13 3.475,11.248 3.069,8.834 L1.097,9.166 C1.664,12.546 4.567,15 8,15 C11.859,15 15,11.859 15,8 C15,4.141 11.859,1 8,1 M9,5 L9,8.382 L10.447,9.105 C10.941,9.353 11.142,9.953 10.895,10.447 C10.719,10.798 10.366,11 9.999,11 C9.849,11 9.696,10.966 9.553,10.895 L7.553,9.895 C7.214,9.725 7,9.379 7,9 L7,5 C7,4.447 7.447,4 8,4 C8.553,4 9,4.447 9,5"/>
</svg>
